<?xml version="1.0" encoding="UTF-8"?>
<map version="1.10" tiledversion="1.12.1" orientation="orthogonal" renderorder="right-up" width="1" height="1" tilewidth="16" tileheight="16" infinite="1" nextlayerid="2" nextobjectid="1">
 <tileset firstgid="1" source="PixelFantasy_Caves_1.0/mainlev_build.tsx"/>
 <tileset firstgid="4097" source="Nivel2Juego.tsx"/>
 <tileset firstgid="5466" source="../../../UNIR/Diseno de niveles/Actividad 1/Dungeon.tsx"/>
 <layer id="1" name="Tile Layer 1" width="1" height="1" offsetx="12.3333" offsety="14.5">
  <data encoding="csv">
   <chunk x="112" y="-48" width="16" height="16">
0,0,0,0,0,0,0,0,0,0,0,0,0,0,0,0,
0,0,0,0,0,0,0,0,0,0,0,0,0,0,0,0,
0,0,0,0,0,0,0,0,0,0,0,0,0,0,0,0,
0,0,0,0,0,0,0,0,0,0,0,0,0,0,0,0,
0,0,0,0,0,0,0,0,0,0,0,0,0,0,0,0,
0,0,0,0,0,0,0,0,0,0,0,0,0,0,0,0,
0,0,0,0,0,0,0,0,0,0,0,0,0,0,0,0,
0,0,0,0,0,0,0,0,0,0,0,0,0,0,0,0,
0,0,0,0,0,0,0,0,0,0,0,0,0,0,0,0,
0,0,0,0,0,0,0,0,0,0,0,0,0,0,0,0,
0,0,0,0,0,0,0,0,0,0,0,0,0,0,0,0,
0,0,0,0,0,0,0,0,0,0,0,0,0,0,0,0,
0,0,0,0,0,0,0,0,0,0,0,0,0,0,0,0,
0,0,0,0,0,0,0,0,0,0,0,0,0,0,0,0,
0,0,0,0,0,0,0,0,0,1200,0,0,0,0,0,0,
0,0,0,0,0,0,0,0,0,2500,0,0,0,0,0,0
</chunk>
   <chunk x="128" y="-48" width="16" height="16">
0,0,0,0,0,0,0,0,0,0,0,0,0,0,0,0,
0,0,0,0,0,0,0,0,0,0,0,0,0,0,0,0,
0,0,0,0,0,0,0,0,0,0,0,0,0,0,0,0,
0,0,0,0,0,0,0,0,0,0,0,0,0,0,0,0,
0,0,0,0,0,0,0,0,0,0,0,0,0,0,0,0,
0,0,0,0,0,0,0,0,0,0,0,0,0,0,0,0,
0,0,0,0,0,0,0,0,0,0,0,0,0,0,0,0,
0,0,0,0,0,0,0,0,0,0,0,0,0,0,0,0,
0,0,0,0,0,0,0,0,0,0,0,0,0,0,0,0,
0,0,0,0,0,0,0,0,0,0,0,0,0,0,0,0,
0,0,0,0,0,0,0,0,0,0,0,0,0,0,0,0,
0,0,0,0,0,0,0,0,0,0,0,0,1200,0,0,0,
0,0,0,0,0,0,0,0,0,0,0,1610613936,2306,2684355760,0,0,
0,0,0,0,0,0,0,0,0,0,0,0,3221226672,0,0,0,
0,0,0,0,0,0,0,0,0,0,0,0,0,0,0,0,
0,0,0,0,0,0,0,0,0,0,0,0,0,0,0,0
</chunk>
   <chunk x="144" y="-48" width="16" height="16">
0,0,0,0,0,0,0,0,0,0,0,0,0,0,0,0,
0,0,0,0,0,0,0,0,0,0,0,0,0,0,0,0,
0,0,0,0,0,0,0,0,0,0,0,0,0,0,0,0,
0,0,0,0,0,0,0,0,0,0,0,0,0,0,0,0,
0,0,0,0,0,0,0,0,0,0,0,0,0,0,0,0,
0,0,0,0,0,0,0,0,0,0,0,0,0,0,0,0,
0,0,0,0,0,0,0,0,0,0,0,0,0,0,0,0,
0,0,0,0,0,0,0,0,0,0,0,0,0,0,0,0,
0,0,0,0,0,0,0,0,0,0,0,0,0,0,0,0,
0,0,0,0,0,0,0,0,0,0,0,0,0,0,0,0,
0,0,0,0,0,0,0,0,0,0,0,0,0,0,0,0,
0,0,0,0,0,0,0,0,0,0,0,0,0,0,0,0,
0,0,0,0,0,0,0,0,0,0,0,0,0,0,0,0,
0,1200,0,0,0,0,0,0,0,0,0,0,0,0,0,0,
1610613936,2306,2684355760,0,0,0,0,0,0,0,0,0,0,0,0,0,
0,3221226672,0,0,0,0,0,0,0,0,0,0,0,0,0,0
</chunk>
   <chunk x="-16" y="-32" width="16" height="16">
0,0,0,0,0,0,0,0,0,0,0,0,0,0,0,0,
0,0,0,0,0,0,0,0,0,0,0,0,0,0,0,0,
0,0,0,0,0,0,0,0,0,0,0,0,0,0,0,0,
0,0,0,0,0,0,0,0,0,0,0,0,0,0,0,0,
0,0,0,0,0,0,0,0,0,0,0,0,0,0,0,0,
0,0,0,0,0,0,0,0,0,0,0,0,0,0,0,0,
0,0,0,0,0,0,0,0,0,0,0,0,0,0,0,0,
0,0,0,0,0,0,0,0,0,0,0,0,0,0,0,0,
0,0,0,0,0,0,0,0,0,0,0,0,0,0,0,0,
0,0,0,0,0,0,0,0,0,0,0,0,0,0,0,0,
0,0,0,0,0,0,0,0,0,0,0,0,0,0,0,0,
0,0,0,0,0,0,0,0,0,0,0,0,0,0,0,0,
0,0,0,0,0,0,0,0,0,0,0,0,0,0,0,0,
0,0,0,0,0,0,0,0,0,0,0,0,0,0,0,0,
0,0,0,0,0,0,0,0,0,0,0,0,3722,3724,3726,3727,
0,0,0,0,0,0,0,0,0,0,0,0,3786,3788,3790,3791
</chunk>
   <chunk x="0" y="-32" width="16" height="16">
0,0,0,0,0,0,0,0,0,0,0,0,0,0,0,0,
0,0,0,0,0,0,0,0,0,0,0,0,0,0,0,0,
0,0,0,0,0,0,0,0,0,0,0,0,0,0,0,0,
0,0,0,0,0,0,0,0,0,0,0,0,0,0,0,0,
0,0,0,0,0,0,0,0,0,0,0,0,0,0,0,0,
0,0,0,0,0,0,0,0,0,0,0,0,0,0,0,0,
0,0,0,0,0,0,0,0,0,0,0,0,0,0,0,0,
0,0,0,0,0,0,0,0,0,0,0,0,0,0,0,0,
0,0,0,0,0,0,0,0,0,0,0,0,0,0,0,0,
0,0,0,0,0,0,0,0,0,0,0,0,0,0,0,0,
0,0,0,0,0,0,0,0,0,0,0,0,0,0,0,0,
0,0,0,0,0,0,0,0,0,0,0,0,0,0,0,0,
0,0,0,0,0,0,0,0,0,0,0,0,0,0,0,0,
0,0,0,0,0,0,0,0,0,0,0,0,0,0,0,0,
3729,3730,3732,3734,3722,3724,3726,3727,3729,3730,3732,3734,3722,3724,3726,3727,
3793,3794,3796,3798,3786,3788,3790,3791,3793,3794,3796,3798,3786,3788,3790,3791
</chunk>
   <chunk x="16" y="-32" width="16" height="16">
0,0,0,0,0,0,0,0,0,0,0,0,0,0,0,0,
0,0,0,0,0,0,0,0,0,0,0,0,0,0,0,0,
0,0,0,0,0,0,0,0,0,0,0,0,0,0,0,0,
0,0,0,0,0,0,0,0,0,0,0,0,0,0,0,0,
0,0,0,0,0,0,0,0,0,0,0,0,0,0,0,0,
0,0,0,0,0,0,0,0,0,0,0,0,0,0,0,0,
0,0,0,0,0,0,0,0,0,0,0,0,0,0,0,0,
0,0,0,0,0,0,0,0,0,0,0,0,0,0,0,0,
0,0,0,0,0,0,0,0,0,0,0,0,0,0,0,0,
0,0,0,0,0,0,0,0,0,0,0,0,0,0,0,0,
0,0,0,0,0,0,0,0,0,0,0,0,0,0,0,0,
0,0,0,0,0,0,0,0,0,0,0,0,0,0,0,0,
0,0,0,0,0,0,0,0,0,0,0,0,0,0,0,0,
0,0,0,0,0,0,0,0,0,0,0,0,0,0,0,0,
3729,3730,3732,3734,3722,3724,3726,3727,3729,3730,3732,3734,3722,3724,3726,3727,
3793,3794,3796,3798,3786,3788,3790,3791,3793,3794,3796,3798,3786,3788,3790,3791
</chunk>
   <chunk x="32" y="-32" width="16" height="16">
0,0,0,0,0,0,0,0,0,0,0,0,0,0,0,0,
0,0,0,0,0,0,0,0,0,0,0,0,0,0,0,0,
0,0,0,0,0,0,0,0,0,0,0,0,0,0,0,0,
0,0,0,0,0,0,0,0,0,0,0,0,0,0,0,0,
0,0,0,0,0,0,0,0,0,0,0,0,0,0,0,0,
0,0,0,0,0,0,0,0,0,0,0,0,0,0,0,0,
0,0,0,0,0,0,0,0,0,0,0,0,0,0,0,0,
0,0,0,0,0,0,0,0,0,0,0,0,0,0,0,0,
0,0,0,0,0,0,0,0,0,0,0,0,0,0,0,0,
0,0,0,0,0,0,0,0,0,0,0,0,0,0,0,0,
0,0,0,0,0,0,0,0,0,0,0,0,0,0,0,0,
0,0,0,0,0,0,0,0,0,0,0,0,0,0,0,0,
0,0,0,0,0,0,0,0,0,0,0,0,0,0,0,0,
0,0,0,0,0,0,0,0,0,0,0,0,0,0,0,0,
3729,3730,3732,3734,0,0,0,0,0,0,0,0,0,0,0,0,
3793,3794,3796,3798,2436,2809,0,0,0,0,0,0,0,0,0,0
</chunk>
   <chunk x="64" y="-32" width="16" height="16">
0,0,0,0,0,0,0,0,0,0,0,0,0,0,0,0,
0,0,0,0,0,0,0,0,0,0,0,0,0,0,0,0,
0,0,0,0,0,0,0,0,0,0,0,0,0,0,0,0,
0,0,0,0,0,0,0,0,0,0,0,0,0,0,0,0,
0,0,0,0,0,0,0,0,0,0,0,0,0,0,0,0,
0,0,0,0,0,0,0,0,0,0,0,0,0,0,0,0,
0,0,0,0,0,0,0,0,0,0,0,0,0,0,0,0,
0,0,0,0,0,0,0,0,0,0,0,0,0,0,0,0,
0,0,0,0,0,0,0,0,0,0,0,0,0,0,0,0,
0,0,0,0,0,0,0,0,0,0,0,0,0,0,0,0,
0,0,0,0,0,0,0,0,0,0,0,0,0,0,0,0,
0,0,0,0,0,0,0,0,0,0,0,0,0,0,0,0,
0,0,0,0,0,0,0,0,0,0,0,0,0,0,0,0,
0,0,0,0,0,0,0,0,0,0,0,0,0,0,0,0,
0,0,0,0,0,0,0,0,0,0,0,0,5648,0,0,0,
0,0,0,0,0,0,0,0,0,0,0,0,5648,0,0,5648
</chunk>
   <chunk x="80" y="-32" width="16" height="16">
0,0,0,0,0,0,0,0,0,0,0,0,0,0,0,0,
0,0,0,0,0,0,0,0,0,0,0,0,0,0,0,0,
0,0,0,0,0,0,0,0,0,0,0,0,0,0,0,0,
0,0,0,0,0,0,0,0,0,0,0,0,0,0,0,0,
0,0,0,0,0,0,0,0,0,0,0,0,0,0,0,0,
0,0,0,0,0,0,0,0,0,0,0,0,0,0,0,0,
0,0,0,0,0,0,0,0,0,0,2436,0,0,0,0,0,
0,0,0,0,0,0,0,0,0,0,2500,0,0,0,0,0,
0,0,0,0,0,0,0,0,0,0,2564,0,0,0,0,0,
0,0,0,0,0,0,0,0,0,0,2628,0,0,0,0,0,
0,0,0,0,0,0,0,0,0,0,2436,0,0,0,0,0,
0,0,0,0,0,0,0,0,0,0,2500,0,0,0,0,0,
0,0,0,0,0,0,0,0,0,0,2564,0,0,0,0,0,
0,0,0,0,0,0,0,0,0,0,2628,0,0,0,0,0,
0,0,0,0,0,0,0,0,0,0,2436,0,0,0,0,0,
0,0,0,0,0,0,0,0,0,0,2500,0,0,0,0,0
</chunk>
   <chunk x="112" y="-32" width="16" height="16">
0,0,0,0,0,0,0,0,0,2564,0,0,0,0,0,0,
0,0,0,0,0,0,0,0,0,2628,0,0,0,0,0,1200,
0,0,0,0,0,0,0,0,0,2436,0,0,0,0,1610613936,2500,
0,0,0,0,0,0,0,0,0,2500,0,0,0,0,1610613936,2564,
0,0,0,0,0,0,0,0,0,2564,0,0,0,0,0,2628,
0,0,0,0,0,0,0,0,0,2628,0,0,0,0,0,2436,
0,0,0,0,0,0,0,0,0,2436,2684355760,0,0,0,0,2500,
0,0,0,0,0,0,0,0,0,2500,2684355760,0,0,0,0,2564,
0,0,0,0,0,0,0,0,0,2564,2684355760,0,0,0,0,2628,
0,0,0,0,0,0,0,0,0,2628,0,0,0,0,0,2436,
0,0,0,0,0,0,0,0,0,2436,0,0,0,0,1610613936,2500,
0,0,0,0,0,0,0,0,0,2500,0,0,0,0,1610613936,2564,
0,0,0,0,0,0,0,0,0,2564,0,0,0,0,1610613936,2628,
0,0,0,0,0,0,0,0,0,2628,0,0,0,0,0,2436,
0,0,0,0,0,0,0,0,0,0,0,0,0,0,0,2500,
0,0,0,0,0,0,0,0,0,0,0,0,0,0,0,2564
</chunk>
   <chunk x="128" y="-32" width="16" height="16">
0,0,0,0,0,0,0,0,0,0,0,0,0,0,0,0,
0,0,0,0,0,0,0,1200,0,0,0,0,0,0,0,0,
2577,2578,2580,2582,2684355760,0,1610613936,2306,2684355760,0,0,2306,0,0,0,0,
0,0,0,0,0,0,0,3221226672,0,0,0,0,0,0,0,0,
0,0,0,0,0,0,0,0,0,0,0,0,0,0,0,0,
0,0,0,0,0,0,0,0,1200,0,0,0,0,0,0,0,
0,0,0,0,0,0,0,1610613936,2306,2684355760,0,0,0,0,0,0,
0,0,0,0,0,0,0,0,3221226672,0,0,0,0,0,0,0,
0,0,0,0,0,0,0,0,0,0,1200,0,0,0,0,0,
0,0,0,0,0,0,0,0,0,1610613936,2306,2684355760,0,0,0,0,
0,0,0,0,0,0,0,0,0,0,3221226672,0,0,0,0,0,
0,0,0,0,0,0,0,0,0,0,0,0,0,0,0,0,
0,0,0,0,0,0,0,0,0,0,0,1200,0,0,0,0,
0,0,0,0,0,0,0,0,0,0,1610613936,2306,2684355760,0,0,0,
0,0,0,0,0,0,0,0,0,0,0,3221226672,0,0,0,0,
0,0,0,0,0,0,0,0,0,0,0,0,0,0,0,0
</chunk>
   <chunk x="144" y="-32" width="16" height="16">
0,0,0,0,1200,0,0,0,0,0,0,0,0,0,0,0,
0,0,0,1610613936,2306,2684355760,0,0,0,0,0,0,0,0,0,0,
0,0,0,0,3221226672,0,0,0,0,0,0,0,0,0,0,0,
0,0,0,0,0,1200,0,0,0,0,0,0,0,0,0,0,
0,0,0,0,1610613936,2306,2684355760,0,0,0,0,0,0,0,0,0,
0,0,0,0,0,3221226672,0,0,0,0,0,0,0,0,0,0,
0,0,0,0,0,0,1200,0,0,0,0,0,0,0,0,0,
0,0,0,0,0,1610613936,2306,2684355760,0,0,0,0,0,0,0,0,
0,0,0,0,0,0,3221226672,0,0,0,0,0,0,0,0,0,
0,0,0,0,0,0,0,0,0,0,0,0,0,0,0,0,
0,0,0,0,0,0,0,1200,0,0,0,0,0,0,0,0,
0,0,0,0,0,0,1610613936,2306,2684355760,0,0,0,0,0,0,0,
0,0,0,0,0,0,0,3221226672,0,0,0,0,0,0,0,0,
0,0,0,0,0,0,0,0,1200,0,0,0,0,0,0,0,
0,0,0,0,0,0,0,1610613936,2306,2684355760,0,0,0,0,0,0,
0,0,0,0,0,0,0,0,3221226672,0,0,0,0,0,0,0
</chunk>
   <chunk x="0" y="-16" width="16" height="16">
0,0,0,0,0,0,0,0,0,0,0,0,0,0,0,0,
0,0,0,0,0,0,0,0,0,0,0,0,0,0,0,0,
0,0,0,0,0,0,0,0,0,0,0,0,0,0,0,0,
0,0,0,0,0,0,0,0,0,0,0,0,0,0,0,0,
0,0,0,0,0,0,0,0,0,0,0,0,0,0,0,0,
0,0,0,0,0,0,0,0,0,0,0,0,0,0,0,0,
0,0,0,0,0,0,0,0,0,0,0,0,0,0,0,0,
0,0,0,0,0,0,0,0,0,0,0,0,0,0,0,0,
0,0,0,0,0,0,0,0,0,0,0,0,0,0,0,0,
0,0,0,0,0,0,0,0,0,0,0,0,0,0,0,0,
0,0,0,0,0,0,0,0,0,0,0,0,0,0,0,0,
0,0,0,4564,0,4566,0,0,0,0,0,0,0,0,0,0,
0,0,0,0,0,0,0,0,0,0,0,0,0,0,0,0,
0,0,0,0,0,0,0,0,0,0,0,0,0,0,0,0,
0,0,0,0,0,0,0,0,0,0,0,0,0,0,0,0,
0,0,0,4712,0,0,0,4716,0,0,0,0,0,0,0,0
</chunk>
   <chunk x="16" y="-16" width="16" height="16">
0,0,0,0,0,0,0,0,0,0,0,0,0,0,0,0,
0,0,0,0,0,0,0,0,0,0,0,0,0,0,0,0,
0,0,0,0,0,0,0,0,0,0,0,0,0,0,0,0,
0,0,0,0,0,0,0,0,0,0,0,0,0,0,0,0,
0,0,0,0,0,0,0,0,0,0,0,0,0,0,0,0,
0,0,0,0,0,0,0,0,0,0,0,0,0,0,0,0,
0,0,0,0,0,0,0,0,0,0,0,0,0,0,0,0,
0,0,0,0,0,0,0,0,0,0,0,0,0,0,0,0,
0,0,0,0,0,0,0,0,0,0,0,2306,0,0,0,0,
0,0,0,0,0,0,0,0,0,0,0,0,0,0,0,0,
0,0,0,0,0,0,0,0,0,0,0,0,0,0,0,0,
0,0,0,0,0,0,2306,0,0,0,0,0,0,0,0,0,
0,0,0,0,0,0,0,0,0,0,0,0,0,0,0,0,
0,0,0,0,0,0,0,0,0,0,0,0,0,0,0,0,
0,0,0,0,0,0,0,0,0,0,0,0,0,0,0,0,
0,0,0,0,0,0,0,0,0,2306,0,0,0,0,0,0
</chunk>
   <chunk x="32" y="-16" width="16" height="16">
0,0,0,0,2500,2809,0,0,0,0,0,0,0,0,0,0,
0,0,0,0,2564,2809,0,0,0,0,0,0,0,0,0,0,
0,0,0,0,2628,2809,0,0,0,0,0,0,0,0,0,0,
0,0,0,0,2436,2809,0,0,0,0,0,0,0,0,0,0,
0,0,0,0,2500,2809,0,0,0,0,0,0,0,0,0,0,
0,0,0,0,2564,2809,0,0,0,0,0,0,0,0,0,0,
0,0,0,0,2628,2809,0,0,0,0,0,0,0,0,0,0,
0,0,0,0,2436,2809,0,0,0,0,0,0,0,0,0,0,
0,0,0,0,2500,2809,0,0,0,0,0,0,0,0,0,0,
0,0,0,0,2564,2809,0,0,0,0,0,0,0,0,0,0,
0,0,0,0,2628,2809,0,0,0,0,0,0,0,0,0,0,
0,0,0,0,0,0,0,0,0,0,0,0,0,0,0,0,
0,0,0,0,0,0,0,0,0,0,5648,5648,0,0,0,0,
0,0,0,0,0,0,0,0,0,0,5648,5648,0,0,0,0,
0,0,0,0,0,0,0,0,0,0,5648,5648,0,0,0,0,
0,0,0,0,0,0,2306,0,0,0,730,731,0,0,0,0
</chunk>
   <chunk x="48" y="-16" width="16" height="16">
0,0,0,0,0,0,0,0,0,0,0,0,0,0,0,0,
0,0,0,0,0,0,0,0,0,0,0,0,0,0,0,0,
0,0,0,0,0,0,0,0,0,0,0,0,0,0,0,0,
0,0,0,0,0,0,0,0,0,0,0,0,0,0,0,0,
0,0,0,0,0,0,0,0,0,0,0,0,0,0,0,0,
5648,0,0,0,0,0,0,0,0,0,0,0,0,0,0,0,
5648,0,0,0,0,0,0,0,0,0,2147489296,0,0,0,0,0,
5648,0,0,0,0,0,0,0,0,2147489296,0,0,0,0,0,0,
733,0,0,0,0,0,0,0,2147489296,0,0,0,0,0,0,0,
3221231120,0,0,0,0,0,0,733,0,0,0,0,0,0,0,0,
3221231120,0,0,0,0,0,1073747472,0,0,0,0,0,1610618384,1610618384,1610618384,1610618384,
3221231120,0,0,0,0,1073747472,0,0,0,0,0,0,0,0,0,0,
0,0,0,0,1073747472,0,0,0,0,0,0,0,0,0,0,0,
0,0,0,0,0,0,0,0,0,0,0,0,0,0,0,0,
0,0,0,0,0,0,0,0,0,0,0,0,0,0,0,0,
0,0,0,0,0,0,0,0,0,0,0,0,0,0,0,0
</chunk>
   <chunk x="64" y="-16" width="16" height="16">
0,0,0,0,0,0,0,0,0,0,0,0,5648,0,0,0,
0,0,0,0,0,0,0,0,0,0,0,0,5648,0,0,0,
0,0,0,0,0,0,0,0,0,0,0,0,733,0,0,0,
0,0,0,0,0,0,0,0,0,0,0,0,3221231120,0,0,0,
0,0,0,0,0,0,0,0,0,0,0,0,3221231120,0,0,0,
0,0,0,0,0,0,0,0,0,0,0,0,0,0,0,0,
0,0,0,0,0,0,0,0,0,0,0,0,0,0,0,0,
0,0,0,0,0,0,0,0,0,0,0,0,5648,0,0,0,
0,0,0,0,0,0,0,0,0,0,0,0,5648,0,0,0,
0,0,0,0,0,0,0,0,0,0,0,0,5648,0,0,0,
1610618384,730,731,2684360208,2684360208,2684360208,0,0,0,0,0,0,5648,0,0,0,
0,0,0,0,0,0,0,0,0,0,0,0,733,0,0,0,
0,0,0,0,0,0,0,0,0,0,0,0,3221231120,0,0,0,
1610618384,1610618384,730,731,2684360208,2684360208,2684360208,2684360208,2684360208,2684360208,0,0,3221231120,0,0,0,
0,0,0,0,0,0,0,0,0,0,0,0,0,0,0,0,
0,0,0,0,0,0,0,0,0,0,0,0,0,0,0,0
</chunk>
   <chunk x="80" y="-16" width="16" height="16">
5648,0,0,0,0,0,0,0,0,0,2564,0,0,0,0,0,
0,5648,0,0,0,0,0,0,0,0,2628,0,0,0,0,0,
0,0,733,0,0,0,0,0,0,0,0,0,0,0,0,0,
0,0,0,3221231120,0,0,0,0,0,0,0,0,0,0,0,0,
0,0,0,0,3221231120,0,0,0,0,0,0,0,0,0,0,0,
0,0,0,0,0,3221231120,0,0,0,0,0,0,0,0,0,0,
0,0,0,0,0,0,0,0,0,0,0,0,0,0,0,0,
0,0,0,0,0,0,0,0,0,0,2570,2572,2574,2575,2577,2578,
0,0,0,0,0,0,0,0,0,0,0,0,0,0,0,0,
0,0,0,0,0,0,0,0,0,0,0,0,0,0,0,0,
0,0,0,0,0,0,0,0,0,0,0,0,0,0,0,0,
0,0,0,0,0,0,0,0,0,0,0,0,0,0,0,0,
0,0,0,0,0,0,0,0,0,0,0,0,0,0,0,0,
0,0,0,0,0,0,0,0,0,0,0,0,0,0,0,0,
0,0,0,0,0,0,0,0,0,0,0,0,0,0,0,0,
0,0,0,0,0,0,0,0,0,0,0,0,0,0,0,0
</chunk>
   <chunk x="96" y="-16" width="16" height="16">
0,0,0,0,0,0,0,0,0,0,0,0,0,0,0,0,
0,0,0,0,0,0,0,0,0,0,0,0,0,0,0,0,
0,0,0,0,0,0,0,0,0,0,0,0,0,0,1200,1200,
0,0,0,0,0,0,0,0,0,1610613936,2577,2578,2580,2582,2577,2578,
0,0,0,0,0,0,0,0,0,0,3221226672,3221226672,3221226672,3221226672,3221226672,3221226672,
0,0,0,0,1610613936,2306,2684355760,0,0,0,0,0,0,0,0,0,
0,0,0,0,0,3221226672,0,0,0,0,0,0,0,0,0,0,
2580,2582,0,0,0,0,0,0,0,0,0,0,0,0,0,0,
0,0,0,0,0,0,0,0,0,0,0,0,0,0,0,0,
0,0,0,0,0,0,0,0,0,0,0,0,0,0,0,0,
0,0,0,0,0,0,0,0,0,0,0,0,0,0,0,0,
0,0,0,0,0,0,0,0,0,0,0,0,0,0,0,0,
0,0,0,0,0,0,0,0,0,0,0,0,0,0,0,0,
0,0,0,0,0,0,0,0,0,0,0,0,0,0,0,0,
0,0,0,0,0,0,0,0,0,0,0,0,0,0,0,0,
0,0,0,0,0,0,0,0,0,0,0,0,0,0,0,0
</chunk>
   <chunk x="112" y="-16" width="16" height="16">
0,0,0,0,0,0,0,0,0,0,0,0,0,0,0,2628,
0,0,0,0,0,0,0,0,0,0,0,0,0,0,0,0,
1200,1200,0,0,0,0,1200,1200,0,0,0,0,1200,1200,0,0,
2580,2582,2684355760,0,0,1610613936,2577,2578,2580,2582,2577,2578,2580,2582,2684355760,0,
3221226672,3221226672,0,0,0,0,3221226672,3221226672,3221226672,3221226672,3221226672,3221226672,3221226672,3221226672,0,0,
0,0,0,0,0,0,0,0,0,0,0,0,0,0,0,0,
0,0,0,0,0,0,0,0,0,0,0,0,0,0,0,0,
0,0,0,0,0,0,0,0,0,0,0,0,0,0,0,0,
0,0,0,0,0,0,0,0,0,0,0,0,0,0,0,0,
0,0,0,0,0,0,0,0,0,0,0,0,0,0,0,0,
0,0,0,0,0,0,0,0,0,0,0,0,0,0,0,0,
0,0,0,0,0,0,0,0,0,0,0,0,0,0,0,0,
0,0,0,0,0,0,0,0,0,0,0,0,0,0,0,0,
0,0,0,0,0,0,0,0,0,0,0,0,0,0,0,0,
0,0,0,0,0,0,0,0,0,0,0,0,0,0,0,0,
0,0,0,0,0,0,0,0,0,0,0,0,0,0,0,0
</chunk>
   <chunk x="128" y="-16" width="16" height="16">
0,0,0,0,0,0,0,0,0,0,0,1200,0,0,0,0,
0,0,0,0,0,0,0,0,0,0,1610613936,2306,2684355760,0,0,0,
0,0,0,0,0,0,0,0,0,0,0,3221226672,0,0,0,0,
0,0,0,0,0,0,0,0,0,0,0,0,0,0,0,0,
0,0,0,0,0,0,0,0,0,0,0,1200,0,0,0,0,
0,0,0,0,0,0,0,0,0,0,1610613936,2306,2684355760,0,0,0,
0,0,0,0,0,0,0,0,0,0,0,3221226672,0,0,0,0,
0,0,0,0,0,0,0,0,0,0,0,0,0,0,0,0,
0,0,0,0,0,0,0,0,0,0,1200,0,0,0,0,0,
0,0,0,0,0,0,0,0,0,1610613936,2306,2684355760,0,0,0,0,
0,0,0,0,0,0,0,0,0,0,3221226672,0,0,0,0,0,
0,0,0,0,0,0,0,0,1200,0,0,0,0,0,0,0,
0,0,0,0,0,0,0,1610613936,2306,2684355760,0,0,0,0,0,0,
0,0,0,0,0,0,0,0,3221226672,0,0,0,0,0,0,0,
0,0,0,0,0,0,1200,0,0,0,0,0,0,0,0,0,
0,0,0,0,0,1610613936,2306,2684355760,0,0,0,0,0,0,0,0
</chunk>
   <chunk x="144" y="-16" width="16" height="16">
0,0,0,0,0,0,0,0,0,0,0,0,0,0,0,0,
0,0,0,0,0,0,0,0,1200,0,0,0,0,0,0,0,
0,0,0,0,0,0,0,1610613936,2306,2684355760,0,0,0,0,0,0,
0,0,0,0,0,0,0,0,3221226672,0,0,0,0,0,0,0,
0,0,0,0,0,0,0,0,1200,0,0,0,0,0,0,0,
0,0,0,0,0,0,0,1610613936,2306,2684355760,0,0,0,0,0,0,
0,0,0,0,0,0,0,0,3221226672,0,0,0,0,0,0,0,
0,0,0,0,0,0,0,0,0,0,0,0,0,0,0,0,
0,0,0,0,0,0,0,0,1200,0,0,0,0,0,0,0,
0,0,0,0,0,0,0,1610613936,2306,2684355760,0,0,0,0,0,0,
0,0,0,0,0,0,0,0,3221226672,0,0,0,0,0,0,0,
0,0,0,0,0,0,1200,0,0,0,0,0,0,0,0,0,
0,0,0,0,0,1610613936,2306,2684355760,0,0,0,0,0,0,0,0,
0,0,0,0,0,0,3221226672,0,0,0,0,0,0,0,0,0,
0,0,0,0,0,1200,0,0,0,0,0,0,0,0,0,0,
0,0,0,0,1610613936,2306,2684355760,0,0,0,0,0,0,0,0,0
</chunk>
   <chunk x="0" y="0" width="16" height="16">
2570,2572,2574,2575,2577,2578,2580,2582,0,0,0,0,0,0,0,0,
0,0,0,0,0,0,0,0,0,0,0,0,0,0,0,0,
0,0,0,0,0,0,0,0,0,0,0,0,0,0,0,0,
0,0,0,0,0,0,0,0,0,0,0,0,0,0,0,0,
0,0,0,0,0,0,0,0,0,0,0,0,0,0,0,0,
0,0,0,0,0,0,0,0,0,0,0,0,0,0,0,0,
0,0,0,0,0,0,0,0,0,0,0,0,0,0,0,0,
0,0,0,0,0,0,0,0,0,0,0,0,0,0,4819,4819,
0,0,0,0,0,0,4819,0,0,0,0,0,0,0,4819,4819,
0,0,0,0,0,4819,4819,4819,0,0,0,0,0,0,4819,4819,
0,0,0,0,0,4819,4819,0,0,0,0,0,0,4819,4819,4819,
0,0,0,0,0,0,4819,4819,4819,4819,4819,4819,4819,4819,4819,4819,
0,0,0,0,0,0,4819,4819,4819,4819,4819,4819,4819,4819,4819,4819,
0,0,0,0,0,0,0,0,0,0,4819,4819,4819,4819,0,0,
0,0,0,0,0,0,0,0,0,0,0,0,0,0,0,0,
0,0,0,0,0,0,0,0,0,0,0,0,0,0,0,0
</chunk>
   <chunk x="16" y="0" width="16" height="16">
2306,0,0,0,0,0,0,0,0,0,0,0,0,0,0,0,
0,0,0,0,0,0,0,0,0,0,0,0,0,0,0,0,
0,0,0,0,0,0,2306,0,0,0,0,0,0,0,0,0,
0,0,0,0,0,0,0,0,0,0,0,0,0,0,0,0,
0,0,0,0,0,0,0,0,0,0,0,0,0,0,0,0,
0,0,0,0,0,0,0,0,0,0,0,0,0,0,0,0,
0,0,0,0,0,0,0,0,0,0,0,0,0,0,0,0,
4819,4819,4819,4819,4819,4819,4819,0,0,0,0,0,0,0,0,0,
4819,4819,4819,4819,4819,4819,4819,4819,4819,4819,4819,4819,4819,4819,4819,0,
4819,4819,4819,4819,4819,4819,4819,0,0,0,0,0,0,0,4819,0,
4819,4819,4819,4819,4819,4819,4819,4819,4819,4819,4819,0,0,0,0,0,
4819,4819,4819,4819,4819,4819,4819,4819,4819,4819,0,0,0,0,0,0,
4819,4819,4819,0,0,0,0,0,0,0,0,0,0,0,0,0,
0,0,0,0,0,0,0,0,0,0,0,0,0,0,0,0,
0,0,0,0,0,0,0,0,0,0,0,0,0,0,0,0,
0,0,0,0,0,0,0,0,0,0,0,0,0,0,0,0
</chunk>
   <chunk x="32" y="0" width="16" height="16">
0,0,0,0,0,0,0,0,0,0,3221231120,3221231120,0,0,0,0,
0,0,0,0,0,0,0,0,0,0,3221231120,3221231120,0,0,0,0,
0,0,0,0,0,0,0,0,0,0,3221231120,3221231120,0,0,0,0,
0,0,0,0,0,0,0,0,0,0,3221231120,3221231120,0,0,0,0,
0,0,0,0,0,0,0,0,0,0,0,0,0,0,0,0,
0,0,0,0,0,0,0,0,0,0,0,0,0,0,0,0,
0,0,0,0,0,0,0,0,0,0,0,0,0,0,0,0,
0,0,0,0,0,0,0,0,0,0,0,0,0,0,0,0,
0,0,0,0,0,0,0,0,0,0,0,0,0,0,0,0,
0,0,0,0,0,0,0,0,0,0,0,0,0,0,0,0,
0,0,0,0,0,0,0,0,0,0,0,0,0,0,0,0,
0,0,0,0,0,0,0,0,0,0,0,0,0,0,0,0,
0,0,0,0,0,0,0,0,0,0,0,0,0,0,0,0,
0,0,0,0,0,0,0,0,0,0,0,0,0,0,0,0,
0,0,0,0,0,0,0,0,0,0,0,0,0,0,0,0,
0,0,0,0,0,0,0,0,0,0,0,0,0,0,0,0
</chunk>
   <chunk x="128" y="0" width="16" height="16">
0,0,0,0,0,0,3221226672,0,0,0,0,0,0,0,0,0,
0,0,0,0,0,0,0,0,0,0,0,0,0,0,0,0,
0,0,0,0,0,0,0,1200,0,0,0,0,0,0,0,0,
0,0,0,0,0,0,1610613936,2306,2684355760,0,0,0,0,0,0,0,
0,0,0,0,0,0,0,3221226672,0,0,0,0,0,0,0,0,
0,0,0,0,0,0,0,0,0,1200,0,0,0,0,0,0,
0,0,0,0,0,0,0,0,1610613936,2306,2684355760,0,0,0,0,0,
0,0,0,0,0,0,0,0,0,3221226672,0,0,0,0,0,0,
0,0,0,0,0,0,0,0,0,0,0,1200,0,0,0,0,
0,0,0,0,0,0,0,0,0,0,1610613936,2306,2684355760,0,0,0,
0,0,0,0,0,0,0,0,0,0,0,3221226672,0,0,0,0,
0,0,0,0,0,0,0,0,0,0,0,0,0,0,0,0,
0,0,0,0,0,0,0,0,0,0,0,1200,0,0,0,0,
0,0,0,0,0,0,0,0,0,0,1610613936,2306,2684355760,0,0,0,
0,0,0,0,0,0,0,0,0,0,0,3221226672,0,0,0,0,
0,0,0,0,0,0,0,0,0,0,0,0,0,0,0,0
</chunk>
   <chunk x="144" y="0" width="16" height="16">
0,0,0,0,0,3221226672,0,0,0,0,0,0,0,0,0,0,
0,0,0,0,0,0,0,0,0,0,0,0,0,0,0,0,
0,0,0,0,0,1200,0,0,0,0,0,0,0,0,0,0,
0,0,0,0,1610613936,2306,2684355760,0,0,0,0,0,0,0,0,0,
0,0,0,0,0,3221226672,0,0,0,0,0,0,0,0,0,0,
0,0,0,0,0,0,1200,0,0,0,0,0,0,0,0,0,
0,0,0,0,0,1610613936,2306,2684355760,0,0,0,0,0,0,0,0,
0,0,0,0,0,0,3221226672,0,0,0,0,0,0,0,0,0,
0,0,0,0,0,0,0,0,1200,0,0,0,0,0,0,0,
0,0,0,0,0,0,0,1610613936,2306,2684355760,0,0,0,0,0,0,
0,0,0,0,0,0,0,0,3221226672,0,0,0,0,0,0,0,
0,0,0,0,0,0,0,0,0,0,0,0,0,0,0,0,
0,0,0,0,0,0,0,0,1200,0,0,0,0,0,0,0,
0,0,0,0,0,0,0,1610613936,2306,2684355760,0,0,0,0,0,0,
0,0,0,0,0,0,0,0,3221226672,0,0,0,0,0,0,0,
0,0,0,0,0,0,0,0,0,0,0,0,0,0,0,0
</chunk>
   <chunk x="160" y="0" width="16" height="16">
0,0,0,0,0,0,0,0,0,0,0,0,0,0,0,0,
0,0,0,0,0,0,0,0,0,0,0,0,0,0,0,0,
0,0,0,0,0,0,0,0,0,0,0,0,0,0,0,0,
0,0,0,0,0,0,0,0,0,0,0,0,0,0,0,0,
0,0,0,0,0,0,0,0,0,0,0,0,0,0,0,0,
0,0,0,0,0,0,0,0,0,0,0,0,0,0,0,0,
0,0,0,0,0,0,0,0,0,0,0,0,0,0,0,0,
0,0,0,0,0,0,0,0,0,0,0,0,0,0,0,0,
0,0,0,0,0,0,0,0,0,0,0,0,0,0,0,0,
0,0,0,0,0,0,0,0,0,0,0,0,0,0,0,0,
0,0,0,0,0,0,0,0,0,0,0,0,0,0,0,0,
0,0,0,0,0,0,0,0,0,0,0,0,0,0,0,0,
0,0,0,0,0,0,0,0,0,0,0,0,0,0,0,0,
0,0,0,0,0,0,0,0,0,0,0,0,0,0,0,0,
0,0,0,0,0,0,0,0,0,0,0,0,0,0,0,0,
0,0,0,0,0,0,0,0,0,0,0,0,0,0,0,5648
</chunk>
   <chunk x="176" y="0" width="16" height="16">
0,0,0,0,0,0,0,0,0,0,0,0,0,0,0,0,
0,0,0,0,0,0,0,0,0,0,0,0,0,0,0,0,
0,0,0,0,0,0,0,0,0,0,0,0,0,0,0,0,
0,0,0,0,0,0,0,0,0,0,0,0,0,0,0,0,
0,0,0,0,0,0,0,0,0,0,0,0,0,0,0,0,
0,0,0,0,0,0,0,0,0,0,0,0,0,0,0,0,
0,0,0,0,0,0,0,0,0,0,0,0,0,0,0,0,
0,0,0,0,0,0,0,0,0,0,0,0,0,0,0,0,
0,0,0,0,0,0,0,0,0,0,0,0,0,0,0,0,
0,0,0,0,0,0,0,0,0,0,0,0,0,0,0,0,
0,0,0,0,0,0,0,0,0,0,0,0,0,0,0,0,
0,0,0,0,0,0,0,0,0,0,0,0,0,0,0,0,
0,0,0,0,0,0,0,0,0,0,0,0,0,0,0,0,
0,0,0,0,0,0,0,0,0,0,0,0,0,0,0,0,
0,0,0,1200,0,0,0,0,0,0,0,0,0,0,0,0,
0,0,0,2436,2577,2578,2580,2582,0,0,0,0,0,0,0,0
</chunk>
   <chunk x="128" y="16" width="16" height="16">
0,0,0,0,0,0,0,0,0,0,0,1200,0,0,0,0,
0,0,0,0,0,0,0,0,0,0,1610613936,2306,2684355760,0,0,0,
0,0,0,0,0,0,0,0,0,0,0,3221226672,0,0,0,0,
0,0,0,0,0,0,0,0,0,0,0,0,0,0,0,0,
0,0,0,0,0,0,0,0,0,0,0,1200,0,0,0,0,
0,0,0,0,0,0,0,0,0,0,1610613936,2306,2684355760,0,0,0,
0,0,0,0,0,0,0,0,0,0,0,3221226672,0,0,0,0,
0,0,0,0,0,0,0,0,0,0,0,0,0,0,0,0,
0,0,0,0,0,0,0,0,0,0,0,0,0,0,0,0,
0,0,0,0,0,0,0,0,0,0,0,0,0,0,0,0,
0,0,0,0,0,0,0,0,0,0,0,0,0,0,0,0,
0,0,0,0,0,0,0,0,0,0,0,0,0,0,0,0,
0,0,0,0,0,0,0,0,0,0,0,0,0,0,0,0,
0,0,0,0,0,0,0,0,0,0,0,0,0,0,0,0,
0,0,0,0,0,0,0,0,0,0,0,0,0,0,0,0,
0,0,0,0,0,0,0,0,0,0,0,0,0,0,0,0
</chunk>
   <chunk x="144" y="16" width="16" height="16">
0,0,0,0,0,0,0,0,1200,0,0,0,0,0,0,0,
0,0,0,0,0,0,0,1610613936,2306,2684355760,0,0,0,0,0,0,
0,0,0,0,0,0,0,0,3221226672,0,0,0,0,0,0,0,
0,0,0,0,0,0,0,0,0,0,0,0,0,0,0,0,
0,0,0,0,0,0,0,0,1200,0,0,0,0,0,0,0,
0,0,0,0,0,0,0,1610613936,2306,2684355760,0,0,0,0,0,0,
0,0,0,0,0,0,0,0,3221226672,0,0,0,0,0,0,0,
0,0,0,0,0,0,0,0,0,0,0,0,0,0,0,0,
0,0,0,0,0,0,0,0,0,0,0,0,0,0,0,0,
0,0,0,0,0,0,0,0,0,0,0,0,0,0,0,0,
0,0,0,0,0,0,0,0,0,0,0,0,0,0,0,0,
0,0,0,0,0,0,0,0,0,0,0,0,0,0,0,0,
0,0,0,0,0,0,0,0,0,0,0,0,0,0,0,0,
0,0,0,0,0,0,0,0,0,0,0,0,0,0,0,0,
0,2306,2306,0,0,0,0,0,0,0,0,0,2306,0,0,1610613936,
0,0,0,0,0,0,0,0,0,0,0,0,0,0,0,0
</chunk>
   <chunk x="160" y="16" width="16" height="16">
0,0,0,0,0,0,0,0,0,0,0,0,0,0,0,5648,
0,0,0,0,0,0,0,0,0,0,0,0,0,0,0,5648,
0,0,0,0,0,0,0,0,0,0,0,0,0,0,0,1200,
0,0,0,0,0,0,0,0,0,0,0,0,0,0,1610613936,733,
0,0,0,0,0,0,0,0,0,0,0,0,0,0,0,3221226672,
0,0,0,0,0,0,0,0,0,0,0,0,0,5648,0,3221231120,
0,0,0,0,0,0,0,0,0,0,0,0,0,0,5648,0,
0,0,0,0,0,0,0,0,0,0,0,0,0,0,0,5648,
0,0,0,0,0,0,0,0,0,0,0,0,0,0,0,0,
0,0,0,0,0,0,0,0,0,0,0,0,0,0,0,0,
5648,0,0,0,0,0,0,0,5648,0,0,0,2306,0,0,0,
5648,0,0,0,0,0,0,0,5648,0,0,0,0,0,0,0,
5648,0,0,0,0,0,0,0,5648,0,0,0,0,0,0,0,
1200,0,0,0,0,0,0,0,1200,0,0,0,0,0,0,0,
733,2684355760,0,0,2306,0,0,1610613936,733,2684355760,0,0,0,0,0,0,
3221226672,0,0,0,0,0,0,0,3221226672,0,0,0,0,0,0,0
</chunk>
   <chunk x="176" y="16" width="16" height="16">
0,0,0,2500,0,0,0,0,0,0,0,0,0,0,0,0,
0,0,0,2564,0,0,0,0,0,0,0,0,0,0,0,0,
0,0,0,2628,0,0,0,0,0,0,0,0,0,0,0,0,
2684355760,0,0,2436,2684355760,0,0,0,0,0,0,0,0,0,0,0,
0,0,0,2500,2684355760,0,0,0,0,0,0,0,0,0,0,0,
0,0,0,2564,2684355760,0,0,0,0,0,0,0,0,0,0,0,
0,0,0,2628,2684355760,0,0,0,0,0,0,0,0,0,0,0,
0,0,0,0,0,0,0,0,0,2306,0,1610618384,1610618384,1610618384,1610618384,1610613936,
5648,0,0,0,0,0,0,0,0,0,0,0,0,0,0,0,
0,5648,1200,0,0,0,0,0,0,0,0,0,0,0,0,0,
0,1610613936,733,2684355760,0,0,0,0,0,0,0,0,0,0,0,0,
0,0,3221226672,3221231120,0,0,0,0,0,0,0,0,0,0,0,0,
0,0,0,0,3221231120,0,0,0,0,0,0,0,0,0,0,0,
0,0,0,0,0,0,0,0,0,0,0,0,0,0,0,0,
0,0,0,0,0,0,0,0,0,0,0,0,0,0,0,0,
0,0,0,0,0,0,0,0,0,0,0,0,0,0,0,0
</chunk>
   <chunk x="192" y="16" width="16" height="16">
0,0,0,0,0,0,0,0,0,0,0,0,0,0,0,0,
0,0,0,0,0,0,0,0,0,0,0,0,0,0,0,0,
0,0,0,0,0,0,0,0,0,0,0,0,0,0,0,0,
0,0,0,0,0,0,0,0,0,0,0,0,0,2306,0,0,
0,0,0,0,0,0,0,0,0,0,0,0,0,1200,0,0,
0,0,0,0,0,0,0,0,1610618384,1610618384,1610618384,1610618384,1610613936,733,2684355760,2684360208,
1200,0,0,0,0,0,0,0,0,0,0,0,0,3221226672,0,0,
733,2684355760,2684360208,2684360208,2684360208,2684360208,2684360208,0,2306,0,0,0,0,0,0,0,
3221226672,0,0,0,0,0,0,0,0,0,0,0,0,0,0,0,
2306,0,0,0,0,0,0,0,0,0,0,0,0,0,0,0,
0,0,0,0,0,0,0,0,0,0,0,0,0,0,0,0,
0,0,0,0,0,0,0,0,0,0,0,0,0,0,0,0,
0,0,0,0,0,0,0,0,0,0,0,0,0,0,0,0,
0,0,0,0,0,0,0,0,0,0,0,0,0,0,0,0,
0,0,0,0,0,0,0,0,0,0,0,0,0,0,0,0,
0,0,0,0,0,0,0,0,0,0,0,0,0,0,0,0
</chunk>
   <chunk x="208" y="16" width="16" height="16">
0,0,0,0,0,0,0,0,0,0,0,0,0,0,0,0,
0,0,0,0,0,0,0,0,0,0,0,0,0,0,0,0,
0,0,0,0,0,0,0,0,0,0,0,0,0,0,0,0,
0,0,0,0,0,0,0,0,0,0,0,0,0,0,0,0,
0,0,0,0,0,0,0,0,0,0,0,0,0,0,0,0,
2684360208,2684360208,2684360208,2684360208,0,0,0,0,0,0,0,0,0,0,0,0,
0,0,0,0,0,0,0,0,0,1610613936,2570,2572,2574,2575,2577,2578,
0,0,0,0,0,0,0,0,0,0,0,0,0,0,0,0,
0,0,0,0,0,0,0,0,0,0,0,0,0,0,0,0,
0,0,0,0,0,0,0,0,0,0,0,0,0,0,0,0,
0,0,0,0,0,0,0,0,0,0,0,0,0,0,0,0,
0,0,0,0,0,0,0,0,0,0,0,0,0,0,0,0,
0,0,0,0,0,0,0,0,0,0,0,0,0,0,0,0,
0,0,0,0,0,0,0,0,0,0,0,0,0,0,0,0,
0,0,0,0,0,0,0,0,0,0,0,0,0,0,0,0,
0,0,0,0,0,0,0,0,0,0,0,0,0,0,0,0
</chunk>
   <chunk x="224" y="16" width="16" height="16">
0,0,0,0,0,0,0,0,0,0,0,0,0,0,0,0,
0,0,0,0,0,0,0,0,0,0,0,0,0,0,0,0,
0,0,0,0,0,0,0,0,0,0,0,0,0,0,0,0,
0,0,0,0,0,0,0,0,0,0,0,0,0,0,0,0,
0,0,0,0,0,0,0,0,0,0,0,0,0,0,0,0,
0,0,0,0,0,0,0,0,0,0,0,0,0,0,0,0,
2580,2582,0,0,0,0,0,0,0,0,0,0,0,0,0,0,
0,0,0,0,0,0,0,0,0,0,0,0,0,0,0,0,
0,0,0,0,0,0,0,0,0,0,0,0,0,0,0,0,
0,0,0,0,0,0,0,0,0,0,0,0,0,0,0,0,
0,0,0,0,0,0,0,0,0,0,0,0,0,0,0,0,
0,0,0,0,0,0,0,0,0,0,0,0,0,0,0,0,
0,0,0,0,0,0,0,0,0,0,0,0,0,0,0,0,
0,0,0,0,0,0,0,0,0,0,0,0,0,0,0,0,
0,0,0,0,0,0,0,0,0,0,0,0,0,0,0,0,
0,0,0,0,0,0,0,0,0,0,0,0,0,0,0,0
</chunk>
   <chunk x="160" y="32" width="16" height="16">
3221231120,0,0,0,0,0,0,0,3221231120,0,0,0,0,0,0,0,
0,0,0,0,0,0,0,0,0,0,0,0,0,0,0,0,
0,0,0,0,0,0,0,0,0,0,0,0,0,0,0,0,
0,0,0,0,0,0,0,0,0,0,0,0,0,0,0,0,
0,0,0,0,0,0,0,0,0,0,0,0,0,0,0,0,
0,0,0,0,0,0,0,0,0,0,0,0,0,0,0,0,
0,0,0,0,0,0,0,0,0,0,0,0,0,0,0,0,
0,0,0,0,0,0,0,0,0,0,0,0,0,0,0,0,
0,0,0,0,0,0,0,0,0,0,0,0,0,0,0,0,
0,0,0,0,0,0,0,0,0,0,0,0,0,0,0,0,
0,0,0,0,0,0,0,0,0,0,0,0,0,0,0,0,
0,0,0,0,0,0,0,0,0,0,0,0,0,0,0,0,
0,0,0,0,0,0,0,0,0,0,0,0,0,0,0,0,
0,0,0,0,0,0,0,0,0,0,0,0,0,0,0,0,
0,0,0,0,0,0,0,0,0,0,0,0,0,0,0,0,
0,0,0,0,0,0,0,0,0,0,0,0,0,0,0,0
</chunk>
  </data>
 </layer>
</map>
